X:42
T:Fairy Dance
M:2/4
K:D
L:1/16
Q:1/8=120
"D" f2(fd) f2(fd) | f2(fd) "A" (cd)ef | "D" f2(fd) "G" (gf)ed | "A" cABc "D" dcde |
"D" f2(fd) f2(fd) | f2(fd) "A" (cd)ef | "D" f2(fd) "G" (gf)ed | "A" cABc "D" defg ||
"D" a2(af) "G (B7)" b2(ba) | "G (Em)" g2(ge) "A" a2(ag) | "D" f2(fd) "G" (gf)ed | "A" cABc "D" defg |
"D" a2(af) "G (B7)" b2(ba) | "G (Em)" g2(ge) "A" a2(ag) | "D" f2(fd) "G" (gf)ed | "A" cABc "D" [d2D2] |]

% Ellen added slurs & changed a few notes here.
